symbols/web/view_in_ar/materialsymbolsrounded/view_in_ar_wght300grad200_24px.svg

<svg xmlns="http://www.w3.org/2000/svg" height="24" width="24"><path d="M1.675 5.85q-.45 0-.762-.313Q.6 5.225.6 4.775V3.75q0-1.325.913-2.238Q2.425.6 3.75.6h1.025q.45 0 .763.312.312.313.312.763t-.312.763q-.313.312-.763.312H3.75q-.425 0-.712.287-.288.288-.288.713v1.025q0 .45-.312.762-.313.313-.763.313ZM3.75 23.4q-1.325 0-2.237-.913Q.6 21.575.6 20.25v-1.025q0-.45.313-.763.312-.312.762-.312t.763.312q.312.313.312.763v1.025q0 .425.288.712.287.288.712.288h1.025q.45 0 .763.312.312.313.312.763t-.312.762q-.313.313-.763.313Zm15.475-.1q-.45 0-.762-.312-.313-.313-.313-.763t.313-.763q.312-.312.762-.312h1.025q.425 0 .712-.288.288-.287.288-.712v-1.025q0-.45.312-.762.313-.313.763-.313t.763.313q.312.312.312.762v1.025q0 1.325-.912 2.238-.913.912-2.238.912Zm3.1-17.45q-.45 0-.763-.313-.312-.312-.312-.762V3.75q0-.425-.288-.713-.287-.287-.712-.287h-1.025q-.45 0-.762-.312-.313-.313-.313-.763t.313-.763Q18.775.6 19.225.6h1.025q1.325 0 2.238.912.912.913.912 2.238v1.025q0 .45-.312.762-.313.313-.763.313ZM10.775 19.7l-4.75-2.75q-.575-.35-.9-.912-.325-.563-.325-1.213V9.35q0-.675.325-1.237.325-.563.9-.888l4.75-2.775q.575-.3 1.225-.3.65 0 1.225.3l4.75 2.775q.575.325.9.888.325.562.325 1.237v5.475q0 .65-.325 1.213-.325.562-.9.912l-4.75 2.75q-.575.325-1.225.325-.65 0-1.225-.325Zm.175-2.45V12.7l-4-2.325v4.4q0 .075.038.15.037.075.112.125Zm2.15 0 3.8-2.2q.075-.05.113-.125.037-.075.037-.15v-4.4L13.1 12.7ZM12 10.8l3.95-2.3-3.8-2.15q-.075-.05-.15-.05t-.15.05L8.05 8.5Zm0 1.9Zm0-1.9Zm1.1 1.9Zm-2.15 0Z"/></svg>

<svg xmlns="http://www.w3.org/2000/svg" height="24" width="24"><path d="M11.225 19.95 5.625 16.7Q5.25 16.475 5.025 16.1Q4.8 15.725 4.8 15.3V8.85Q4.8 8.425 5.025 8.05Q5.25 7.675 5.625 7.45L11.225 4.2Q11.575 4 12 4Q12.425 4 12.775 4.2L18.375 7.45Q18.75 7.675 18.975 8.05Q19.2 8.425 19.2 8.85V15.3Q19.2 15.725 18.975 16.1Q18.75 16.475 18.375 16.7L12.775 19.95Q12.425 20.15 12 20.15Q11.575 20.15 11.225 19.95ZM10.95 17.25V12.7L6.95 10.375V14.95ZM13.1 17.25 17.05 14.95V10.375L13.1 12.7ZM1.675 5.85Q1.225 5.85 0.913 5.537Q0.6 5.225 0.6 4.775V3.75Q0.6 2.45 1.525 1.525Q2.45 0.6 3.75 0.6H4.775Q5.225 0.6 5.538 0.912Q5.85 1.225 5.85 1.675Q5.85 2.125 5.538 2.438Q5.225 2.75 4.775 2.75H3.75Q3.3 2.75 3.025 3.025Q2.75 3.3 2.75 3.75V4.775Q2.75 5.225 2.438 5.537Q2.125 5.85 1.675 5.85ZM3.75 23.4Q2.45 23.4 1.525 22.475Q0.6 21.55 0.6 20.25V19.225Q0.6 18.775 0.913 18.462Q1.225 18.15 1.675 18.15Q2.125 18.15 2.438 18.462Q2.75 18.775 2.75 19.225V20.25Q2.75 20.7 3.025 20.975Q3.3 21.25 3.75 21.25H4.775Q5.225 21.25 5.538 21.562Q5.85 21.875 5.85 22.325Q5.85 22.775 5.538 23.087Q5.225 23.4 4.775 23.4ZM19.225 23.3Q18.775 23.3 18.463 22.988Q18.15 22.675 18.15 22.225Q18.15 21.775 18.463 21.462Q18.775 21.15 19.225 21.15H20.25Q20.7 21.15 20.975 20.875Q21.25 20.6 21.25 20.15V19.125Q21.25 18.675 21.562 18.363Q21.875 18.05 22.325 18.05Q22.775 18.05 23.088 18.363Q23.4 18.675 23.4 19.125V20.15Q23.4 21.45 22.475 22.375Q21.55 23.3 20.25 23.3ZM22.325 5.85Q21.875 5.85 21.562 5.537Q21.25 5.225 21.25 4.775V3.75Q21.25 3.3 20.975 3.025Q20.7 2.75 20.25 2.75H19.225Q18.775 2.75 18.463 2.438Q18.15 2.125 18.15 1.675Q18.15 1.225 18.463 0.912Q18.775 0.6 19.225 0.6H20.25Q21.55 0.6 22.475 1.525Q23.4 2.45 23.4 3.75V4.775Q23.4 5.225 23.088 5.537Q22.775 5.85 22.325 5.85ZM12 10.8 15.95 8.5 12 6.25 8.05 8.5ZM12 12.7ZM12 10.8ZM13.1 12.7ZM10.95 12.7Z"/></svg>
